X: 43074
T: Wind That Shakes The Barley, The
R: reel
M: 4/4
K: Dmajor
A2AB AFED|B2BA Bcd2|A2AB AFED|gfed BcdB|
A2AB AFED|B2BA BcdB|A2AB AFED|gfed Bcde||
f2fd g2ge|f2fd edBd|f2fd g2ab|afed Bcde|
f2fd g2ge|f2fd edBd|defg afbf|gfed BcdB||

